X:1
T:The Coachman's Reel  "1998.3"
M:C
L:1/8
Q:80
C:Traditional, arr. M. Green
S:Reel
K:HP
|: e/2 | \
{g}A3/2e/2{A}e3/2A/2{eAfA}e2{g}A3/2e/2 | \
{A}e3/2A/2{g}e3/2A/2{g}d3/2{e}d/2{G}d3/2e/2 |
{g}A3/2e/2{A}e3/2A/2{eAfA}e2{g}A3/2e/2 | \
g3/2e/2{g}d3/2B/2{g}A3/2{d}A/2{d}A3/2 :: \
{d}B/2 |
{g}A3/2a/2{g}a3/2A/2g3/2{f}g/2A3/2a/2 | \
{g}a3/2A/2g3/2{f}g/2e3/2d/2{G}d3/2e/2 | \
{g}A3/2a/2{g}a3/2A/2g3/2{f}g/2A3/2a/2 |
{g}a3/2e/2{g}d3/2B/2{g}A3/2{d}A/2{d}A3/2 :|
